X:880
T:Big Kilmarnock Bunnet
C:Joe Buchanan's Scottish Tome - Page 436.2
I:436 2
R:Two-step
Z:Carl Allison
L:1/8
M:6/8
K:G
Bc | d2> d2 e2> d2 | d2> B2 G2> B2 | d2> B2 E2> F2 | G4- G2 E |
G2> G2 G2> G2 | G2> G2 B2> c2 | d2> d2 c2> B2 | A4 (3ABc |
d2> d2 e2> d2 | d2> B2 G2> B2 | d2> B2 E2> F2 | G2> F2 E2> D2 |
G2> G2 G2> B2 |  d2> e2 d2> B2 | A3- A3 | G3- G3 |]
